src/img/youtube.svg

<svg height="28" viewBox="0 0 28 28" width="28" xmlns="http://www.w3.org/2000/svg"><path d="m14 0c7.7319865 0 14 6.2680135 14 14s-6.2680135 14-14 14-14-6.2680135-14-14 6.2680135-14 14-14zm1.8115547 12.9468203c-2.5928753-.0575934-6.85526032.0535516-7.40001588.1934933-.251232.0646662-.44003361.1737903-.63638727.3703149-.34387066.3435391-.54878333.8361135-.63135256 1.5181396-.18779467 1.5560299-.19182243 3.4369063-.01107636 5.0495191.07803799.6936458.23914869 1.1442883.54022432 1.5156136.18829813.2318889.51253341.4289186.80253268.4875224.20340226.0414267 1.22192397.0985148 2.70565287.1520665.2210237.0080833.8060569.0217238 1.3004654.0303123 1.0301016.0181874 2.9241592.0075781 4.0066218-.0227342.7285224-.0207134 2.0566788-.0742651 2.3043865-.0934628.0349912-.0027787.0928903-.006694.1580269-.0108619l.2014513-.0123776c.4304677-.0242498.7038524-.1146814.9601191-.3172684.3327943-.2622011.5895645-.7461871.6983142-1.3140369.1032115-.5370324.1721871-1.4938898.1857808-2.5800795.0120833-.9078525-.0040278-1.3979009-.0689755-2.1839992-.0830728-.993232-.1480205-1.3155525-.3524297-1.729315-.2703639-.5481469-.6610574-.8371239-1.2173927-.9007797-.3821904-.0435598-1.7031987-.1034858-3.0440088-.1396831zm-.6872378 1.4878273.0005967 1.2346496c.0019346.4122329.0082979.7174606.0150109.7174606.0090625 0 .0891143-.0712338.1787322-.1576238.2059196-.1995558.3776032-.2864509.5956061-.3036279.3896865-.0293019.6212831.1712643.7275155.6304952.0275584.1208237.034766.2559778.036355 1.0878937l.0000889 1.1004102c-.0020061 1.0682922-.0170055 1.1062446-.1290826 1.356211-.0669616.1500458-.215989.2970603-.3393394.3329298-.3192005.0949785-.5754673.0181874-.8715082-.2611907-.0921352-.0868952-.1777252-.1576238-.190312-.1576238-.0156076 0-.0236631.0676974-.0236631.2015766v.2015766h-.7612481v-5.9831371zm-3.0666415 1.548957.0055382 1.8086322c.0060416 1.7768043.0070485 1.8101478.0493401 1.8818868.0558853.0964941.1424823.1227647.2784194.0848744.0805554-.022229.1349303-.061635.2648258-.1914725l.1641315-.1631811v-3.4207398h.761248v4.4341801h-.761248l-.0006154-.3117393c-.0020978-.1150743-.0097897-.1550697-.026572-.1550697-.0151042 0-.0840797.0575933-.1530552.128322-.1505378.1535821-.32927.2778624-.4813182.3344453-.3151728.1187231-.6142346.0495101-.7421162-.1707591-.0995008-.1717134-.115703-.2301466-.1183198-1.5368884l-.0004993-2.7224909zm6.1272413.0055573c.5432452-.1985454 1.1972539.0525412 1.4333818.5501677.1238539.2627063.138958.3748617.1520482 1.1144812l.0105729.6628283-.8110917.0060624-.8110917.0050521-.0060416.4455904c-.008559.6284744.0332291.8219677.2023953.9366492.1419788.0959888.3604852.0884107.4793043-.0161666.1117706-.0985149.1434893-.2041026.1545656-.5117722l.009566-.2707896h.7839042l-.0120833.3021123c-.0070486.1662123-.0276909.3576848-.0453124.424877-.1062323.3935543-.3876726.6724272-.7944771.7871086-.5487833.1535822-1.152445-.09902-1.3936076-.5825008-.120727-.2431895-.1370626-.3120638-.139164-1.2745029l-.0000875-.7225947c.0011559-.7694338.0078456-.8877985.0380539-1.0179629.0971699-.4183094.3393394-.6885938.7491647-.8386395zm-9.86853389-1.5550195 1.3895798.0055572 1.39058669.0055573.0115799.7946867-.4813182.0060624-.4818217.0050521-.0105729 2.5780586-.0105729 2.5780587-.41838436.0055572c-.32272488.0045469-.42039824-.0005052-.4279503-.0212186-.00553818-.0146509-.01258678-1.1776317-.01510413-2.5836159l-.00553818-2.55684-.47024186-.0050521-.47024186-.0060624zm6.92473929 2.3461697-.0745137.056583v2.7058754l.0740103.0565829c.1676558.1283219.3514227.1550977.4782974.0702234.0498436-.0338487.0825692-.0808327.1082462-.1540874.0327256-.0964941.0357465-.2192587.0312152-1.3574845-.0045312-1.1862202-.0070486-1.2559385-.0453124-1.33374-.0981768-.1985453-.345381-.2177431-.571943-.0439528zm3.3420401-.1682331c-.2039057 0-.3332977.0990201-.3942177.3021123-.0261805.08639-.0533679.6820261-.0337326.733557.0105729.0282915.0699825.0328383.4269434.0328383h.4153635l-.0070486-.3763774c-.0070486-.3455599-.0115798-.385471-.0573956-.4789338-.0724999-.1475198-.1802426-.2131964-.3499124-.2131964zm-.0237199-8.71797916-.4284538.00505204-.4284538.00606246-.0050347 1.72375782-.0055381 1.72426304-.1429858.1460041c-.1490274.1525717-.2688535.2106703-.3770997.1838944-.1178122-.029807-.1152949.0161666-.1248608-1.95918309l-.0090625-1.81873627h-.857411l.000347 2.78079676c.0019956 1.3106876.0154657 1.3367323.1063888 1.5174833.0850866.1692435.2094439.2515918.4219087.2798833.2794263.0373851.5815089-.0899264.8614388-.3632421l.1218399-.1192282.0005198.2818176c.0018997.1093089.0098014.1308503.0362336.1380073.052361.0151562.7018385.0161666.771821.0015156l.0584026-.0121249zm-3.5157376.15459258c-.3932108-.25563348-.8428104-.28240932-1.2596843-.07578068-.303593.15105615-.4994432.40062719-.6006408.76690046-.0422916.15408738-.0453124.22127958-.0533679 1.2948392-.0100695 1.3862812.0060416 1.5509779.1787321 1.8657203.1696697.3091851.5220994.5355168.9057443.5819956.1147913.0141457.3489053-.0080833.4838355-.0449632.3056069-.0853796.598627-.3278778.728019-.6032142.1349302-.2854406.1409719-.3617265.1409719-1.6803102l-.0001931-.34419065c-.0010821-.7684096-.0075367-.87688872-.0390777-1.01329394-.0815622-.35010673-.2336105-.58553204-.484339-.74770269zm-2.3230149-1.68435186c-.3891831-.00202082-.5080022 0-.5185751.01010409-.0050347.00454684-.1394614.51631901-.3786101 1.44387451-.1142879.44205395-.2104509.79519191-.2134717.78508782-.0035243-.0111145-.1399649-.51581381-.3040965-1.12205923-.163628-.60675063-.3005721-1.10589269-.3045999-1.10993433-.0060416-.00606245-.5271341-.00858848-.9495462-.00505205-.06142344.00050521-.09515599-.11922826.5457625 1.92634483.0886109.28291453.2215272.68404692.295034.89067557.2265619.6375681.2799298.88713913.2562667 1.20390233-.018125.247045-.0211458 1.9925267-.0030208 2.0223337.0135937.022229.8292166.0323331.9067511.0111145.0304321-.0080832.0358024-.070055.0366201-.893074l.0001333-1.57434484.0619269-.19702977c.0342361-.10811376.1198261-.3920387.1908155-.63100044.0709894-.23946694.157083-.5259179.190312-.6370629.3076208-1.00586219.6016478-1.99606305.6091999-2.05214075l.0095659-.06921302zm1.6438365 2.25998603.0659508.01090828c.137951.03789034.208437.1237751.2487146.30564873.0297048.1343844.0332291.3021123.026684 1.2887767-.0075521 1.269579-.008559 1.2791779-.1555725 1.3913333-.0719964.0550673-.1973606.0793171-.2995652.0575933-.0785415-.017177-.1847739-.1409521-.218003-.2541179-.0438019-.1505509-.0443054-2.38860695-.0010069-2.5391579.0573957-.19551414.2205203-.29756546.398749-.25007623z" fill-rule="evenodd"/></svg>

<?xml version="1.0" encoding="UTF-8"?>
<svg width="28px" height="28px" viewBox="0 0 28 28" version="1.1" xmlns="http://www.w3.org/2000/svg" xmlns:xlink="http://www.w3.org/1999/xlink">
    <!-- Generator: Sketch 62 (91390) - https://sketch.com -->
    <title>Combined Shape</title>
    <desc>Created with Sketch.</desc>
    <g id="Social-Icons" stroke="none" stroke-width="1" fill="none" fill-rule="evenodd">
        <g id="social-icons" transform="translate(-40.000000, -100.000000)" fill="#000000">
            <g id="youtube" transform="translate(40.000000, 100.000000)">
                <path d="M14,0 C21.7319865,0 28,6.2680135 28,14 C28,21.7319865 21.7319865,28 14,28 C6.2680135,28 0,21.7319865 0,14 C0,6.2680135 6.2680135,0 14,0 Z M15.8115547,12.9468203 C13.2186794,12.8892269 8.95629438,13.0003719 8.41153882,13.1403136 C8.16030682,13.2049798 7.97150521,13.3141039 7.77515155,13.5106285 C7.43128089,13.8541676 7.22636822,14.346742 7.14379899,15.0287681 C6.95600432,16.584798 6.95197656,18.4656744 7.13272263,20.0782872 C7.21076062,20.771933 7.37187132,21.2225755 7.67294695,21.5939008 C7.86124508,21.8257897 8.18548036,22.0228194 8.47547963,22.0814232 C8.67888189,22.1228499 9.6974036,22.179938 11.1811325,22.2334897 C11.4021562,22.241573 11.9871894,22.2552135 12.4815979,22.263802 C13.5116995,22.2819894 15.4057571,22.2713801 16.4882197,22.2410678 C17.2167421,22.2203544 18.5448985,22.1668027 18.7926062,22.147605 C18.8275974,22.1448263 18.8854965,22.140911 18.9506331,22.1367431 L19.1520844,22.1243655 C19.5825521,22.1001157 19.8559368,22.0096841 20.1122035,21.8070971 C20.4449978,21.544896 20.701768,21.06091 20.8105177,20.4930602 C20.9137292,19.9560278 20.9827048,18.9991704 20.9962985,17.9129807 C21.0083818,17.0051282 20.9922707,16.5150798 20.927323,15.7289815 C20.8442502,14.7357495 20.7793025,14.413429 20.5748933,13.9996665 C20.3045294,13.4515196 19.9138359,13.1625426 19.3575006,13.0988868 C18.9753102,13.055327 17.6543019,12.995401 16.3134918,12.9592037 L16.3134918,12.9592037 Z M15.1243169,14.4346476 L15.1249136,15.6692972 C15.1268482,16.0815301 15.1332115,16.3867578 15.1399245,16.3867578 C15.148987,16.3867578 15.2290388,16.315524 15.3186567,16.229134 C15.5245763,16.0295782 15.6962599,15.9426831 15.9142628,15.9255061 C16.3039493,15.8962042 16.5355459,16.0967704 16.6417783,16.5560013 C16.6693367,16.676825 16.6765443,16.8119791 16.6781333,17.643895 L16.6782222,18.7443052 C16.6762161,19.8125974 16.6612167,19.8505498 16.5491396,20.1005162 C16.482178,20.250562 16.3331506,20.3975765 16.2098002,20.433446 C15.8905997,20.5284245 15.6343329,20.4516334 15.338292,20.1722553 C15.2461568,20.0853601 15.1605668,20.0146315 15.14798,20.0146315 C15.1323724,20.0146315 15.1243169,20.0823289 15.1243169,20.2162081 L15.1243169,20.2162081 L15.1243169,20.4177847 L14.3630688,20.4177847 L14.3630688,14.4346476 L15.1243169,14.4346476 Z M12.0576754,15.9836046 L12.0632136,17.7922368 C12.0692552,19.5690411 12.0702621,19.6023846 12.1125537,19.6741236 C12.168439,19.7706177 12.255036,19.7968883 12.3909731,19.758998 C12.4715285,19.736769 12.5259034,19.697363 12.6557989,19.5675255 L12.6557989,19.5675255 L12.8199304,19.4043444 L12.8199304,15.9836046 L13.5811784,15.9836046 L13.5811784,20.4177847 L12.8199304,20.4177847 L12.819315,20.1060454 C12.8172172,19.9909711 12.8095253,19.9509757 12.792743,19.9509757 C12.7776388,19.9509757 12.7086633,20.008569 12.6396878,20.0792977 C12.48915,20.2328798 12.3104178,20.3571601 12.1583696,20.413743 C11.8431968,20.5324661 11.544135,20.4632531 11.4162534,20.2429839 C11.3167526,20.0712705 11.3005504,20.0128373 11.2979336,18.7060955 L11.2974343,15.9836046 L12.0576754,15.9836046 Z M18.1849167,15.9891619 C18.7281619,15.7906165 19.3821706,16.0417031 19.6182985,16.5393296 C19.7421524,16.8020359 19.7572565,16.9141913 19.7703467,17.6538108 L19.7703467,17.6538108 L19.7809196,18.3166391 L18.9698279,18.3227015 L18.1587362,18.3277536 L18.1526946,18.773344 C18.1441356,19.4018184 18.1859237,19.5953117 18.3550899,19.7099932 C18.4970687,19.805982 18.7155751,19.7984039 18.8343942,19.6938266 C18.9461648,19.5953117 18.9778835,19.489724 18.9889598,19.1820544 L18.9889598,19.1820544 L18.9985258,18.9112648 L19.78243,18.9112648 L19.7703467,19.2133771 C19.7632981,19.3795894 19.7426558,19.5710619 19.7250343,19.6382541 C19.618802,20.0318084 19.3373617,20.3106813 18.9305572,20.4253627 C18.3817739,20.5789449 17.7781122,20.3263427 17.5369496,19.8428619 C17.4162226,19.5996724 17.399887,19.5307981 17.3977856,18.568359 L17.3976981,17.8457643 C17.398854,17.0763305 17.4055437,16.9579658 17.435752,16.8278014 C17.5329219,16.409492 17.7750914,16.1392076 18.1849167,15.9891619 Z M8.31638281,14.4341424 L9.70596261,14.4396996 L11.0965493,14.4452569 L11.1081292,15.2399436 L10.626811,15.246006 L10.1449893,15.2510581 L10.1344164,17.8291167 L10.1238435,20.4071754 L9.70545914,20.4127326 C9.38273426,20.4172795 9.2850609,20.4122274 9.27750884,20.391514 C9.27197066,20.3768631 9.26492206,19.2138823 9.26240471,17.8078981 L9.26240471,17.8078981 L9.25686653,15.2510581 L8.78662467,15.246006 L8.31638281,15.2399436 L8.31638281,14.4341424 Z M15.2411221,16.7803121 L15.1666084,16.8368951 L15.1666084,19.5427705 L15.2406187,19.5993534 C15.4082745,19.7276753 15.5920414,19.7544511 15.7189161,19.6695768 C15.7687597,19.6357281 15.8014853,19.5887441 15.8271623,19.5154894 C15.8598879,19.4189953 15.8629088,19.2962307 15.8583775,18.1580049 C15.8538463,16.9717847 15.8513289,16.9020664 15.8130651,16.8242649 C15.7148883,16.6257196 15.4676841,16.6065218 15.2411221,16.7803121 Z M18.5831622,16.612079 C18.3792565,16.612079 18.2498645,16.7110991 18.1889445,16.9141913 C18.162764,17.0005813 18.1355766,17.5962174 18.1552119,17.6477483 C18.1657848,17.6760398 18.2251944,17.6805866 18.5821553,17.6805866 L18.9975188,17.6805866 L18.9904702,17.3042092 C18.9834216,16.9586493 18.9788904,16.9187382 18.9330746,16.8252754 C18.8605747,16.6777556 18.752832,16.612079 18.5831622,16.612079 Z M18.5594423,7.89409984 L18.1309885,7.89915188 L17.7025347,7.90521434 L17.6975,9.62897216 L17.6919619,11.3532352 L17.5489761,11.4992393 C17.3999487,11.651811 17.2801226,11.7099096 17.1718764,11.6831337 C17.0540642,11.6533267 17.0565815,11.6993003 17.0470156,9.72395061 L17.0470156,9.72395061 L17.0379531,7.90521434 L16.1805421,7.90521434 L16.1808891,10.6860111 C16.1828847,11.9966987 16.1963548,12.0227434 16.2872779,12.2034944 C16.3723645,12.3727379 16.4967218,12.4550862 16.7091866,12.4833777 C16.9886129,12.5207628 17.2906955,12.3934513 17.5706254,12.1201356 L17.5706254,12.1201356 L17.6924653,12.0009074 L17.6929851,12.282725 C17.6948848,12.3920339 17.7027865,12.4135753 17.7292187,12.4207323 C17.7815797,12.4358885 18.4310572,12.4368989 18.5010397,12.4222479 L18.5010397,12.4222479 L18.5594423,12.410123 L18.5594423,7.89409984 Z M15.0437047,8.04869242 C14.6504939,7.79305894 14.2008943,7.7662831 13.7840204,7.97291174 C13.4804274,8.12396789 13.2845772,8.37353893 13.1833796,8.7398122 C13.141088,8.89389958 13.1380672,8.96109178 13.1300117,10.0346514 C13.1199422,11.4209326 13.1360533,11.5856293 13.3087438,11.9003717 C13.4784135,12.2095568 13.8308432,12.4358885 14.2144881,12.4823673 C14.3292794,12.496513 14.5633934,12.474284 14.6983236,12.4374041 C15.0039305,12.3520245 15.2969506,12.1095263 15.4263426,11.8341899 C15.5612728,11.5487493 15.5673145,11.4724634 15.5673145,10.1538797 L15.5671214,9.80968905 C15.5660393,9.04127945 15.5595847,8.93280033 15.5280437,8.79639511 C15.4464815,8.44628838 15.2944332,8.21086307 15.0437047,8.04869242 Z M12.7206898,6.36434056 C12.3315067,6.36231974 12.2126876,6.36434056 12.2021147,6.37444465 C12.19708,6.37899149 12.0626533,6.89076366 11.8235046,7.81831916 C11.7092167,8.26037311 11.6130537,8.61351107 11.6100329,8.60340698 C11.6065086,8.59229248 11.470068,8.08759317 11.3059364,7.48134775 C11.1423084,6.87459712 11.0053643,6.37545506 11.0013365,6.37141342 C10.9952949,6.36535097 10.4742024,6.36282494 10.0517903,6.36636137 C9.99036686,6.36686658 9.95663431,6.24713311 10.5975528,8.2927062 C10.6861637,8.57562073 10.81908,8.97675312 10.8925868,9.18338177 C11.1191487,9.82094987 11.1725166,10.0705209 11.1488535,10.3872841 C11.1307285,10.6343291 11.1277077,12.3798108 11.1458327,12.4096178 C11.1594264,12.4318468 11.9750493,12.4419509 12.0525838,12.4207323 C12.0830159,12.4126491 12.0883862,12.3506773 12.0892039,11.5276583 L12.0892039,11.5276583 L12.0893372,9.95331346 L12.1512641,9.75628369 C12.1855002,9.64816993 12.2710902,9.36424499 12.3420796,9.12528325 C12.413069,8.88581631 12.4991626,8.59936535 12.5323916,8.48822035 C12.8400124,7.48235816 13.1340394,6.4921573 13.1415915,6.4360796 L13.1415915,6.4360796 L13.1511574,6.36686658 Z M14.3645263,8.62432659 L14.4304771,8.63523487 C14.5684281,8.67312521 14.6389141,8.75900997 14.6791917,8.9408836 C14.7088965,9.075268 14.7124208,9.2429959 14.7058757,10.2296603 C14.6983236,11.4992393 14.6973167,11.5088382 14.5503032,11.6209936 C14.4783068,11.6760609 14.3529426,11.7003107 14.250738,11.6785869 C14.1721965,11.6614099 14.0659641,11.5376348 14.032735,11.424469 C13.9889331,11.2739181 13.9884296,9.03586205 14.0317281,8.8853111 C14.0891238,8.68979696 14.2522484,8.58774564 14.4304771,8.63523487 Z" id="Combined-Shape"></path>
            </g>
        </g>
    </g>
</svg>
